X: 24108
T: Long Walk Home, The
R: reel
M: 4/4
K: Amajor
|:EAAc BcAE|FAEA FAce|f3c ecAc|BcAc BAFA|
EAAc BcAE|F2FE FAce|feaf ecAc|B2Bc A2FA:|
|:f2fc fecf|ecAc BAFA|EAAc Bcec|Bcec efab|
affe f3c|ecBc ABce|feaf ecAc|B2Bc ABce:|

